X: 288
T:Fly Not Yet. JaW.287
M:6/8
Q:120
S:James Winder Ms, Lancashire, 1835-41
R:Quadrille
O:England
A:Wyresdale,Lancashire
H:1/8
Z:vmp.Chris Partington, Aug 2004
K:G
G2G G2A|B2c d2B|d2e f2g|a2g fed|b2a a2g|!
g2f e2d|e2f g2e|d2c B2A|G2g gaf|g3-g3:|!
|:G3g3|G3g3|b2a a2g|g2f e2d|!
e2f g2e|dec B2A|G2g (ga).f|g3-g3:|]
